!!!OTL: Der Gluecksjaeger Es war ein Jaeger von stolzem Mut, stolzem Mut,
!!!ARE: Europa, Suedosteuropa, Rumaenien, Bukowina, Eichenau
!!!YOR: 6, S. 193
!!    1937 aufgezeichnet (ca.)
!!!SCT: Q0134C
!!!YEM: Copyright 1995, estate of Helmut Schaffrath.
**kern
*ICvox
*Ivox
*M3/8
*k[]
*C:
{8G
=1
4c
8c
=2
8.e
16d
8c
=3
8.d
16c
8B
=4
8.d
16c
8B}
=5
{8d
8d
16d
16d
=6
4d
16A
16A
=7
8.A
16G
8G
=8
8.A
16G
8G}
=9
{8c
8B
8c
=10
8G
8A
8G
=11
8c
8B
8c
=12
8G
8A
8G}
=13
{8c
8c
16c
16c
=14
8.e
16c
8c
=15
8.d
16e
8d
=16
4c}
==
!!!AGN: Ballade, Jagd, Flucht, Verfuehrung
!! Grundton in der zweigestrichenen Oktave.
!!    Dritte Zeile = Refrain auf sinnfreie Silben.
!!!ONB: ESAC (Essen Associative Code) Database: BALLADE
!!!AMT: simple triple
!!!AIN: vox
!!!EED: Helmut Schaffrath
!!!EEV: 1.0
*-
